; generated by PrusaSlicer 2.8.1+MacOS-arm64 on 2024-11-25 at 09:37:45 UTC


;
;
; 

; external perimeters extrusion width = 0.60mm
; perimeters extrusion width = 0.50mm
; infill extrusion width = 0.50mm
; solid infill extrusion width = 0.50mm
; top infill extrusion width = 0.45mm
; support material extrusion width = 0.38mm
; first layer extrusion width = 0.42mm

M73 P0 R99
M73 Q0 S99
M201 X1000 Y1000 Z200 E5000 ; sets maximum accelerations, mm/sec^2
M203 X200 Y200 Z12 E120 ; sets maximum feedrates, mm / sec
M204 S1250 T1250 ; sets acceleration (S) and retract acceleration (R), mm/sec^2
M205 X8.00 Y8.00 Z0.40 E4.50 ; sets the jerk limits, mm/sec
M205 S0 T0 ; sets the minimum extruding and travel feed rate, mm/sec

; printing object 2024_11_25_projekt_in_call_3D model_tlač_opravené.stl id:0 copy 0
; stop printing object 2024_11_25_projekt_in_call_3D model_tlač_opravené.stl id:0 copy 0

;TYPE:Custom
M862.3 P "MK3S" ; printer model check
M862.1 P0.4 ; nozzle diameter check
M115 U3.14.0 ; tell printer latest fw version
G90 ; use absolute coordinates
M83 ; extruder relative mode
M104 S215 ; set extruder temp
M140 S60 ; set bed temp
M190 S60 ; wait for bed temp
M109 S215 ; wait for extruder temp
G28 W ; home all without mesh bed level
G80 X42.2591 Y60.4739 W159.532 H89.0521 ; mesh bed levelling

G1 Z0.2 F720
G1 Y-3 F1000 ; go outside print area
G92 E0
G1 X60 E9 F1000 ; intro line
G1 X100 E12.5 F1000 ; intro line

G92 E0
M221 S95

; Don't change E values below. Excessive value can damage the printer.

M907 E538 ; set extruder motor current
G21 ; set units to millimeters
G90 ; use absolute coordinates
M83 ; use relative distances for extrusion

M900 K0.05 ; Filament gcode LA 1.5
M900 K30 ; Filament gcode LA 1.0




M107
;LAYER_CHANGE
;Z:0.2
;HEIGHT:0.2
G1 E-.8 F2100
M73 P0 R98
G1 Z.6 F720
G1 X46.076 Y65.573 F10800
G1 Z.2 F720
G1 E.8 F2100
M204 S800
;TYPE:Skirt/Brim
;WIDTH:0.42
G1 F1200
G1 X47.268 Y64.864 E.04349
G1 X53.673 Y61.665 E.22448
G1 X54.751 Y61.202 E.03679
G1 X55.612 Y60.937 E.02825
G1 X56.708 Y60.724 E.03501
G1 X57.469 Y60.662 E.02394
G1 X192.528 Y60.682 E4.23468
G1 X194.072 Y60.884 E.04882
G1 X195.707 Y61.403 E.05379
G1 X197.243 Y62.213 E.05445
G1 X198.515 Y63.201 E.0505
G1 X199.667 Y64.474 E.05383
G1 X200.569 Y65.924 E.05354
G1 X201.226 Y67.592 E.05621
G1 X201.533 Y69.118 E.04881
G1 X201.603 Y70.191 E.03371
G1 X201.597 Y89.542 E.60674
G1 X199.787 Y116.37 E.84309
G1 X199.564 Y118.718 E.07395
G1 X199.212 Y120.92 E.06992
G1 X198.698 Y123.181 E.0727
G1 X198.088 Y125.234 E.06715
G1 X197.295 Y127.399 E.07229
G1 X196.359 Y129.51 E.0724
G1 X195.288 Y131.551 E.07227
G1 X194.089 Y133.518 E.07223
G1 X192.796 Y135.352 E.07036
G1 X191.145 Y137.384 E.08209
G1 X189.619 Y139.017 E.07008
G1 X187.883 Y140.645 E.07462
G1 X186.152 Y142.067 E.07024
G1 X184.279 Y143.41 E.07226
G1 X182.319 Y144.632 E.07242
G1 X180.431 Y145.647 E.06721
G1 X178.334 Y146.607 E.07231
G1 X176.252 Y147.404 E.0699
G1 X173.811 Y148.151 E.08004
G1 X171.729 Y148.641 E.06706
G1 X169.518 Y149.013 E.0703
G1 X166.913 Y149.271 E.08208
G1 X164.845 Y149.337 E.06487
G1 X85.152 Y149.317 E2.49872
G1 X82.844 Y149.237 E.07241
G1 X80.711 Y149.025 E.06721
G1 X78.435 Y148.652 E.07231
G1 X76.188 Y148.131 E.07232
G1 X73.976 Y147.462 E.07246
G1 X71.884 Y146.677 E.07006
G1 X69.496 Y145.588 E.08229
G1 X67.534 Y144.523 E.07
G1 X65.526 Y143.257 E.07443
G1 X63.715 Y141.944 E.07014
G1 X61.933 Y140.465 E.07261
G1 X60.261 Y138.876 E.07232
G1 X58.694 Y137.181 E.07238
G1 X57.246 Y135.39 E.07221
G1 X55.912 Y133.503 E.07246
G1 X54.79 Y131.676 E.06722
G1 X53.709 Y129.635 E.07242
G1 X52.765 Y127.528 E.07239
G1 X51.963 Y125.367 E.07227
G1 X51.302 Y123.158 E.0723
G1 X50.788 Y120.907 E.0724
G1 X42.54 Y73.945 E1.495
G1 X42.448 Y72.385 E.049
G1 X42.639 Y70.82 E.04943
G1 X43.184 Y69.132 E.05562
G1 X43.891 Y67.832 E.0464
G1 X44.886 Y66.597 E.04973
G1 X46.03 Y65.612 E.04733
M204 S1000
;WIPE_START
G1 F8640
G1 X46.076 Y65.573 E-.01393
G1 X47.268 Y64.864 E-.32024
G1 X49.073 Y63.963 E-.46583
;WIPE_END
G1 Z.6 F720
G1 X130.399 Y70.172 F10800
G1 Z.2 F720
G1 E.8 F2100
M204 S800
G1 F1200
G1 X130.463 Y69.299 E.02745
G1 X130.63 Y68.454 E.02701
G1 X130.904 Y67.621 E.02749
G1 X131.269 Y66.838 E.02709
G1 X132.287 Y65.42 E.05473
G1 X132.944 Y64.798 E.02837
G1 X133.665 Y64.267 E.02808
G1 X135.108 Y63.552 E.05049
G1 X136.954 Y63.158 E.05918
G1 X192.574 Y63.158 E1.74393
G1 X194.25 Y63.498 E.05362
G1 X195.374 Y63.981 E.03836
G1 X196.435 Y64.678 E.0398
G1 X197.323 Y65.518 E.03833
G1 X198.045 Y66.48 E.03771
G1 X198.608 Y67.584 E.03886
G1 X198.968 Y68.756 E.03844
G1 X199.115 Y69.868 E.03517
G1 X199.128 Y89.361 E.61119
G1 X198.989 Y90.644 E.04046
G1 X198.624 Y91.88 E.04041
G1 X198.024 Y93.051 E.04125
G1 X197.37 Y93.93 E.03435
G1 X196.658 Y94.639 E.0315
G1 X195.957 Y95.17 E.02757
G1 X195.205 Y95.608 E.02729
G1 X194.311 Y95.982 E.03038
G1 X193.305 Y96.244 E.03259
G1 X192.025 Y96.377 E.04035
G1 X192.801 Y97.592 E.0452
G1 X193.841 Y99.481 E.06761
G1 X194.763 Y101.455 E.06831
G1 X195.542 Y103.465 E.06759
G1 X196.184 Y105.511 E.06723
G1 X196.69 Y107.596 E.06727
G1 X197.059 Y109.708 E.06722
G1 X197.289 Y111.867 E.06808
G1 X197.376 Y114.037 E.06809
G1 X197.322 Y116.115 E.06518
G1 X197.136 Y118.2 E.06563
G1 X196.797 Y120.368 E.0688
G1 X196.319 Y122.496 E.06838
G1 X195.711 Y124.538 E.0668
G1 X194.97 Y126.547 E.06714
G1 X194.094 Y128.507 E.06731
G1 X193.092 Y130.407 E.06735
G1 X191.927 Y132.301 E.06972
G1 X190.696 Y134.027 E.06647
G1 X189.359 Y135.667 E.06634
G1 X187.943 Y137.192 E.06525
G1 X186.426 Y138.63 E.06554
G1 X184.673 Y140.082 E.07137
G1 X182.983 Y141.299 E.0653
G1 X181.224 Y142.406 E.06517
G1 X179.208 Y143.491 E.07178
G1 X177.327 Y144.345 E.06477
G1 X175.384 Y145.086 E.0652
G1 X173.241 Y145.741 E.07026
G1 X171.071 Y146.248 E.06987
G1 X168.984 Y146.588 E.0663
G1 X166.887 Y146.794 E.06607
G1 X164.795 Y146.862 E.06563
G1 X162.704 Y146.798 E.06559
G1 X160.477 Y146.579 E.07016
G1 X158.281 Y146.213 E.0698
G1 X156.244 Y145.73 E.06564
G1 X154.246 Y145.121 E.06549
G1 X152.274 Y144.376 E.0661
G1 X150.348 Y143.505 E.06628
G1 X148.417 Y142.472 E.06866
G1 X146.566 Y141.315 E.06844
G1 X144.839 Y140.069 E.06677
G1 X143.196 Y138.713 E.06679
G1 X141.632 Y137.242 E.06732
G1 X140.122 Y135.615 E.0696
G1 X138.775 Y133.952 E.0671
G1 X137.572 Y132.257 E.06517
G1 X136.415 Y130.374 E.06929
G1 X135.444 Y128.532 E.06529
G1 X134.586 Y126.621 E.06568
G1 X133.786 Y124.452 E.07249
G1 X133.206 Y122.481 E.06442
G1 X132.747 Y120.462 E.06492
G1 X132.409 Y118.348 E.06712
G1 X132.207 Y116.209 E.06737
G1 X132.15 Y114.052 E.06765
G1 X132.238 Y111.859 E.06882
G1 X132.465 Y109.737 E.06691
G1 X132.831 Y107.622 E.0673
G1 X133.347 Y105.49 E.06878
G1 X133.983 Y103.469 E.06643
G1 X134.745 Y101.499 E.06623
G1 X135.654 Y99.544 E.0676
G1 X136.661 Y97.699 E.0659
G1 X137.501 Y96.373 E.04922
G1 X136.315 Y96.26 E.03735
G1 X135.375 Y96.033 E.03032
G1 X134.367 Y95.631 E.03403
G1 X133.287 Y94.97 E.0397
G1 X132.474 Y94.27 E.03364
G1 X131.772 Y93.449 E.03387
G1 X131.182 Y92.488 E.03536
G1 X130.785 Y91.562 E.03159
G1 X130.524 Y90.579 E.03189
G1 X130.399 Y89.363 E.03833
G1 X130.399 Y70.232 E.59984
M204 S1000
G1 X130.399 Y70.232 F10800
G1 X130.776 Y70.232
M204 S800
G1 F1200
G1 X130.776 Y70.179 E.00166
G1 X130.835 Y69.36 E.02575
G1 X130.998 Y68.539 E.02624
G1 X131.259 Y67.75 E.02606
G1 X131.603 Y67.013 E.0255
G1 X132.56 Y65.681 E.05143
G1 X133.178 Y65.094 E.02672
G1 X134.536 Y64.206 E.05087
G1 X135.24 Y63.906 E.02399
G1 X136.974 Y63.535 E.0556
G1 X192.554 Y63.535 E1.74267
G1 X194.155 Y63.863 E.05124
M73 Q0 S98
G1 X195.209 Y64.32 E.03602
G1 X196.213 Y64.983 E.03772
G1 X197.051 Y65.78 E.03626
G1 X197.733 Y66.693 E.03573
G1 X198.265 Y67.739 E.03679
G1 X198.603 Y68.851 E.03644
G1 X198.738 Y69.88 E.03254
G1 X198.75 Y89.351 E.6105
G1 X198.622 Y90.554 E.03793
G1 X198.28 Y91.724 E.03822
G1 X197.696 Y92.865 E.04019
G1 X197.076 Y93.693 E.03243
G1 X196.42 Y94.347 E.02904
G1 X195.757 Y94.85 E.02609
G1 X195.026 Y95.276 E.02653
G1 X194.179 Y95.628 E.02876
G1 X193.225 Y95.875 E.0309
G1 X191.327 Y95.985 E.05961
G1 X192.474 Y97.779 E.06676
G1 X193.508 Y99.657 E.06722
G1 X194.418 Y101.609 E.06753
G1 X195.188 Y103.596 E.06682
G1 X195.823 Y105.618 E.06645
G1 X196.322 Y107.679 E.06649
G1 X196.685 Y109.754 E.06605
G1 X196.912 Y111.888 E.06729
G1 X196.999 Y114.046 E.06772
G1 X196.945 Y116.099 E.06439
G1 X196.762 Y118.148 E.0645
G1 X196.425 Y120.303 E.06839
G1 X195.955 Y122.395 E.06723
G1 X195.355 Y124.413 E.06601
G1 X194.623 Y126.399 E.06636
G1 X193.753 Y128.348 E.06692
G1 X192.761 Y130.226 E.06659
G1 X191.616 Y132.087 E.06851
G1 X190.4 Y133.793 E.06569
G1 X189.071 Y135.424 E.06597
G1 X187.671 Y136.931 E.06449
G1 X186.171 Y138.352 E.06478
G1 X184.437 Y139.787 E.07057
G1 X182.767 Y140.989 E.06451
G1 X181.028 Y142.083 E.06442
G1 X179.046 Y143.15 E.07058
G1 X177.176 Y143.999 E.06439
G1 X175.256 Y144.732 E.06444
G1 X173.137 Y145.378 E.06946
G1 X171.004 Y145.877 E.06868
G1 X168.942 Y146.213 E.06551
G1 X166.856 Y146.418 E.06572
G1 X164.788 Y146.485 E.06487
G1 X162.722 Y146.421 E.06481
G1 X160.52 Y146.205 E.06937
G1 X158.361 Y145.845 E.06863
G1 X156.348 Y145.368 E.06486
G1 X154.362 Y144.762 E.0651
G1 X152.413 Y144.026 E.06532
G1 X150.509 Y143.164 E.06553
G1 X148.601 Y142.143 E.06785
G1 X146.781 Y141.006 E.06729
G1 X145.074 Y139.774 E.06601
G1 X143.45 Y138.434 E.06602
G1 X141.904 Y136.98 E.06654
G1 X140.403 Y135.364 E.06915
G1 X139.079 Y133.728 E.06599
G1 X137.89 Y132.054 E.06438
G1 X136.74 Y130.181 E.06891
G1 X135.78 Y128.361 E.06452
G1 X134.933 Y126.472 E.06491
G1 X134.146 Y124.339 E.07129
G1 X133.569 Y122.38 E.06403
G1 X133.116 Y120.384 E.06417
G1 X132.782 Y118.295 E.06633
G1 X132.583 Y116.18 E.06661
G1 X132.527 Y114.048 E.06687
G1 X132.613 Y111.893 E.06762
G1 X132.839 Y109.783 E.06654
G1 X133.201 Y107.693 E.06651
G1 X133.709 Y105.597 E.06762
G1 X134.337 Y103.599 E.06567
G1 X135.094 Y101.641 E.06582
G1 X135.988 Y99.72 E.06643
G1 X136.989 Y97.885 E.06554
G1 X138.193 Y95.986 E.0705
G1 X136.39 Y95.89 E.05661
G1 X135.476 Y95.67 E.02948
G1 X134.523 Y95.287 E.0322
G1 X133.498 Y94.657 E.03772
G1 X132.731 Y93.995 E.03177
G1 X132.069 Y93.216 E.03205
G1 X131.511 Y92.304 E.03352
G1 X131.137 Y91.427 E.02989
G1 X130.893 Y90.497 E.03015
G1 X130.776 Y89.353 E.03606
G1 X130.776 Y70.292 E.59764
M204 S1000
G1 X130.776 Y70.292 F10800
G1 X131.153 Y70.292
M204 S800
G1 F1200
G1 X131.153 Y70.186 E.00332
G1 X131.36 Y68.645 E.04875
G1 X131.937 Y67.189 E.04911
G1 X132.832 Y65.942 E.04813
G1 X133.429 Y65.376 E.02579
G1 X134.075 Y64.9 E.02516
G1 X135.371 Y64.26 E.04532
G1 X136.994 Y63.912 E.05204
G1 X192.535 Y63.912 E1.74145
G1 X194.059 Y64.228 E.0488
M73 P1 R98
M73 Q1 S98
G1 X195.042 Y64.658 E.03364
G1 X195.99 Y65.288 E.03569
G1 X196.779 Y66.041 E.0342
G1 X197.42 Y66.904 E.03371
G1 X197.92 Y67.894 E.03478
G1 X198.237 Y68.944 E.03439
G1 X198.361 Y69.893 E.03001
G1 X198.373 Y89.341 E.60978
G1 X198.255 Y90.466 E.03547
G1 X197.936 Y91.568 E.03597
G1 X197.367 Y92.679 E.03914
G1 X196.783 Y93.455 E.03045
G1 X196.181 Y94.054 E.02663
G1 X194.848 Y94.944 E.05025
G1 X194.047 Y95.275 E.02717
G1 X193.172 Y95.501 E.02834
G1 X192.143 Y95.606 E.03243
G1 X190.579 Y95.607 E.04904
G1 X192.147 Y97.966 E.08881
G1 X193.175 Y99.833 E.06683
G1 X194.074 Y101.762 E.06673
G1 X194.834 Y103.726 E.06603
G1 X195.461 Y105.725 E.06569
G1 X195.954 Y107.762 E.06571
G1 X196.311 Y109.801 E.0649
G1 X196.536 Y111.91 E.0665
G1 X196.622 Y114.054 E.06728
G1 X196.569 Y116.071 E.06326
G1 X196.389 Y118.096 E.06374
G1 X196.054 Y120.239 E.06801
G1 X195.592 Y122.294 E.06604
G1 X194.999 Y124.288 E.06523
G1 X194.276 Y126.251 E.06559
G1 X193.416 Y128.177 E.06614
G1 X192.43 Y130.044 E.0662
G1 X191.305 Y131.874 E.06735
G1 X190.097 Y133.569 E.06526
G1 X188.783 Y135.181 E.06521
G1 X187.399 Y136.669 E.06372
G1 X185.916 Y138.074 E.06405
G1 X184.202 Y139.493 E.06977
G1 X182.552 Y140.68 E.06373
G1 X180.833 Y141.76 E.06365
G1 X178.884 Y142.809 E.0694
M73 P1 R97
G1 X177.036 Y143.649 E.06365
G1 X175.127 Y144.377 E.06406
G1 X173.033 Y145.016 E.06864
G1 X170.937 Y145.506 E.06749
G1 X168.899 Y145.839 E.06475
G1 X166.826 Y146.042 E.06531
G1 X164.782 Y146.108 E.06412
G1 X162.741 Y146.045 E.06402
G1 X160.564 Y145.83 E.06859
G1 X158.442 Y145.477 E.06745
G1 X156.441 Y145.002 E.06448
G1 X154.478 Y144.403 E.06435
G1 X152.552 Y143.675 E.06456
G1 X150.671 Y142.824 E.06473
G1 X148.784 Y141.813 E.06712
G1 X146.997 Y140.696 E.06608
G1 X145.309 Y139.479 E.06525
G1 X143.704 Y138.155 E.06524
G1 X142.176 Y136.719 E.06575
G1 X140.683 Y135.112 E.06878
G1 X139.383 Y133.505 E.06481
G1 X138.208 Y131.852 E.06359
G1 X137.064 Y129.989 E.06855
G1 X136.116 Y128.191 E.06373
G1 X135.28 Y126.324 E.06414
G1 X134.506 Y124.227 E.07009
G1 X133.935 Y122.291 E.06329
G1 X133.485 Y120.307 E.06379
G1 X133.155 Y118.241 E.0656
G1 X132.96 Y116.151 E.06582
G1 X132.905 Y114.044 E.06609
G1 X132.989 Y111.927 E.06643
G1 X133.212 Y109.842 E.06575
G1 X133.572 Y107.763 E.06616
G1 X134.071 Y105.704 E.06643
G1 X134.691 Y103.73 E.06487
G1 X135.444 Y101.783 E.06545
G1 X136.322 Y99.895 E.06528
G1 X137.317 Y98.071 E.06515
G1 X138.947 Y95.608 E.09261
G1 X137.426 Y95.608 E.04769
G1 X136.439 Y95.516 E.03108
G1 X135.579 Y95.307 E.02775
G1 X134.706 Y94.957 E.02949
G1 X133.732 Y94.361 E.0358
G1 X133.008 Y93.738 E.02995
G1 X132.383 Y93.006 E.03018
G1 X131.852 Y92.143 E.03177
G1 X131.489 Y91.292 E.02901
G1 X131.262 Y90.417 E.02834
G1 X131.153 Y89.344 E.03382
G1 X131.153 Y70.352 E.59548
M204 S1000
G1 X131.153 Y70.352 F10800
G1 X131.53 Y70.352
M204 S800
G1 F1200
G1 X131.53 Y70.193 E.00499
G1 X131.727 Y68.73 E.04629
G1 X132.271 Y67.365 E.04607
G1 X133.105 Y66.203 E.04485
G1 X133.663 Y65.672 E.02415
G1 X134.271 Y65.222 E.02372
G1 X135.502 Y64.614 E.04305
G1 X137.014 Y64.289 E.04849
G1 X192.516 Y64.289 E1.74023
G1 X193.926 Y64.582 E.04515
G1 X194.849 Y64.982 E.03154
G1 X195.743 Y65.573 E.0336
G1 X196.486 Y66.28 E.03216
G1 X197.092 Y67.09 E.03172
G1 X197.564 Y68.019 E.03267
G1 X197.872 Y69.038 E.03338
G1 X197.983 Y69.905 E.02741
G1 X197.996 Y89.332 E.60912
G1 X197.888 Y90.378 E.03297
G1 X197.591 Y91.414 E.03379
G1 X197.056 Y92.465 E.03698
G1 X196.49 Y93.218 E.02954
G1 X195.943 Y93.762 E.02419
G1 X195.338 Y94.223 E.02385
G1 X194.669 Y94.611 E.02425
G1 X193.939 Y94.913 E.02477
G1 X193.119 Y95.128 E.02658
G1 X192.133 Y95.229 E.03108
G1 X189.834 Y95.23 E.07208
G1 X190.728 Y96.448 E.04737
G1 X191.826 Y98.164 E.06388
G1 X192.841 Y100.01 E.06605
G1 X193.729 Y101.916 E.06593
G1 X194.48 Y103.857 E.06526
G1 X195.099 Y105.832 E.06489
G1 X195.583 Y107.833 E.06455
G1 X195.936 Y109.847 E.06411
G1 X196.159 Y111.931 E.06572
G1 X196.244 Y114.051 E.06652
G1 X196.192 Y116.056 E.06289
G1 X196.014 Y118.056 E.06296
G1 X195.682 Y120.174 E.06722
G1 X195.225 Y122.205 E.06527
G1 X194.643 Y124.164 E.06408
G1 X193.929 Y126.103 E.06479
G1 X193.08 Y128.007 E.06536
G1 X192.1 Y129.863 E.06581
G1 X190.994 Y131.66 E.06616
G1 X189.8 Y133.336 E.06452
G1 X188.494 Y134.938 E.06481
G1 X187.127 Y136.408 E.06294
G1 X185.662 Y137.796 E.06328
G1 X183.976 Y139.19 E.06859
G1 X182.346 Y140.364 E.06298
G1 X180.638 Y141.438 E.06326
G1 X178.722 Y142.469 E.06822
G1 X176.885 Y143.303 E.06326
G1 X174.999 Y144.022 E.06329
G1 X172.929 Y144.653 E.06785
G1 X170.87 Y145.135 E.0663
G1 X168.844 Y145.466 E.06437
G1 X166.795 Y145.666 E.06455
G1 X164.776 Y145.731 E.06334
G1 X162.759 Y145.668 E.06327
G1 X160.607 Y145.455 E.0678
G1 X158.523 Y145.108 E.06624
G1 X156.545 Y144.64 E.06373
G1 X154.594 Y144.045 E.06395
G1 X152.691 Y143.324 E.06381
G1 X150.832 Y142.483 E.06397
G1 X148.968 Y141.484 E.06631
G1 X147.212 Y140.387 E.06492
G1 X145.544 Y139.184 E.06448
G1 X143.957 Y137.876 E.06448
G1 X142.448 Y136.458 E.06493
G1 X140.964 Y134.86 E.06838
G1 X139.687 Y133.282 E.06365
G1 X138.526 Y131.649 E.06282
G1 X137.389 Y129.797 E.06814
G1 X136.453 Y128.02 E.06297
G1 X135.627 Y126.176 E.06335
G1 X134.866 Y124.114 E.06892
G1 X134.299 Y122.19 E.06289
G1 X133.854 Y120.23 E.06302
G1 X133.529 Y118.188 E.06483
G1 X133.336 Y116.122 E.06506
G1 X133.282 Y114.041 E.06527
G1 X133.364 Y111.96 E.0653
G1 X133.584 Y109.9 E.06496
G1 X133.94 Y107.846 E.06536
G1 X134.432 Y105.811 E.06564
G1 X135.045 Y103.86 E.06412
